;Generated with Cura_SteamEngine 15.01
; Default start code
G28 ; Home extruder
G29
G1 Z15 F100
M107 ; Turn off fan
G90 ; Absolute positioning
M82 ; Extruder in absolute mode
M190 S50
; Activate all used extruder
M104 T0 S210
G92 E0 ; Reset extruder position
; Wait for all used extruders to reach temperature
M109 T0 S210
;Layer count: 200
;LAYER:0
M107
G0 F9000 X84.400 Y90.400 Z0.300
;TYPE:SKIRT
G1 F1800 X125.600 Y90.400 E2.05548
G1 X125.600 Y119.600 E3.51227
G1 X84.400 Y119.600 E5.56775
G1 X84.400 Y90.400 E7.02454
G0 F9000 X84.800 Y90.800
G1 F1800 X125.200 Y90.800 E9.04010
G1 X125.200 Y119.200 E10.45699
G1 X84.800 Y119.200 E12.47255
G1 X84.800 Y90.800 E13.88943
G1 F2400 E9.88943
G0 F9000 X88.600 Y94.600
;TYPE:WALL-INNER
G1 F2400 E13.88943
G1 F1800 X121.400 Y94.600 E15.52583
G1 X121.400 Y115.400 E16.56355
G1 X88.600 Y115.400 E18.19995
G1 X88.600 Y94.600 E19.23766
G0 F9000 X98.374 Y105.476
G1 F1800 X98.137 Y105.722 E19.25470
G1 X97.767 Y107.017 E19.32190
G1 X97.682 Y107.348 E19.33895
G1 X97.997 Y108.659 E19.40621
G1 X98.088 Y108.988 E19.42324
G1 X99.006 Y109.975 E19.49049
G1 X99.252 Y110.219 E19.50778
G1 X100.609 Y110.628 E19.57849
G1 X100.946 Y110.719 E19.59590
G1 X102.284 Y110.386 E19.66469
G1 X102.620 Y110.298 E19.68202
G1 X103.614 Y109.326 E19.75138
G1 X103.864 Y109.081 E19.76884
G1 X104.227 Y107.741 E19.83811
G1 X104.322 Y107.398 E19.85586
G1 X103.931 Y106.010 E19.92781
G1 X103.830 Y105.663 E19.94584
G1 X102.852 Y104.727 E20.01337
G1 X102.602 Y104.493 E20.03046
G1 X101.298 Y104.162 E20.09758
G1 X100.966 Y104.080 E20.11464
G1 X99.663 Y104.433 E20.18199
G1 X99.335 Y104.528 E20.19903
G1 X98.374 Y105.476 E20.26637
G0 F9000 X99.664 Y104.434
G0 X105.400 Y101.400
G1 F1800 X105.400 Y111.600 E20.77525
G1 X113.600 Y111.600 E21.18435
G1 X113.600 Y101.400 E21.69323
G1 X105.400 Y101.400 E22.10233
G0 F9000 X105.800 Y101.800
;TYPE:WALL-OUTER
G1 F1800 X105.800 Y111.200 E22.57130
G1 X113.200 Y111.200 E22.94049
G1 X113.200 Y101.800 E23.40946
G1 X105.800 Y101.800 E23.77864
G0 F9000 X105.800 Y101.500
G0 X105.459 Y101.459
G0 X102.776 Y104.793
G0 X102.577 Y105.018
G1 F1800 X102.404 Y104.856 E23.79047
G1 X101.201 Y104.550 E23.85240
G1 X100.971 Y104.493 E23.86422
G1 X99.771 Y104.818 E23.92624
G1 X99.544 Y104.884 E23.93804
G1 X98.659 Y105.757 E24.00006
G1 X98.494 Y105.928 E24.01191
G1 X98.153 Y107.122 E24.07386
G1 X98.094 Y107.351 E24.08566
G1 X98.384 Y108.559 E24.14764
G1 X98.447 Y108.787 E24.15944
G1 X99.293 Y109.697 E24.22143
G1 X99.463 Y109.865 E24.23336
G1 X100.719 Y110.243 E24.29879
G1 X100.950 Y110.306 E24.31074
G1 X102.185 Y109.999 E24.37423
G1 X102.416 Y109.938 E24.38615
G1 X103.506 Y108.872 E24.46221
G1 X103.907 Y107.399 E24.53837
G1 X103.546 Y106.120 E24.60468
G1 X103.476 Y105.878 E24.61725
G1 X102.577 Y105.018 E24.67931
G0 F9000 X102.776 Y104.793
G0 X102.598 Y104.500
G0 X100.966 Y104.087
G0 X99.339 Y104.534
G0 X98.143 Y105.726
G0 X97.688 Y107.349
G0 X88.410 Y115.500
G0 X88.200 Y115.800
G1 F1800 X88.200 Y94.200 E25.75694
G1 X121.800 Y94.200 E27.43325
G1 X121.800 Y115.800 E28.51088
G1 X88.200 Y115.800 E30.18719
G0 F9000 X88.954 Y115.259
;TYPE:SKIN
G1 F1800 X88.739 Y115.044 E30.20236
G0 F9000 X88.739 Y114.478
G1 F1800 X89.520 Y115.259 E30.25747
G0 F9000 X90.086 Y115.259
G1 F1800 X88.739 Y113.912 E30.35250
G0 F9000 X88.739 Y113.347
G1 F1800 X90.651 Y115.259 E30.48741
G0 F9000 X91.217 Y115.259
G1 F1800 X88.739 Y112.781 E30.66224
G0 F9000 X88.739 Y112.215
G1 F1800 X91.783 Y115.259 E30.87701
G0 F9000 X92.348 Y115.259
G1 F1800 X88.739 Y111.650 E31.13165
G0 F9000 X88.739 Y111.084
G1 F1800 X92.914 Y115.259 E31.42622
G0 F9000 X93.480 Y115.259
G1 F1800 X88.739 Y110.518 E31.76072
G0 F9000 X88.739 Y109.952
G1 F1800 X94.045 Y115.259 E32.13512
G0 F9000 X94.611 Y115.259
G1 F1800 X88.739 Y109.387 E32.54942
G0 F9000 X88.739 Y108.821
G1 F1800 X95.177 Y115.259 E33.00366
G0 F9000 X95.742 Y115.259
G1 F1800 X88.739 Y108.255 E33.49779
G0 F9000 X88.739 Y107.690
G1 F1800 X96.308 Y115.259 E34.03183
G0 F9000 X96.874 Y115.259
G1 F1800 X88.739 Y107.124 E34.60580
G0 F9000 X88.739 Y106.558
G1 F1800 X97.440 Y115.259 E35.21970
G0 F9000 X98.005 Y115.259
G1 F1800 X88.739 Y105.993 E35.87346
G0 F9000 X88.739 Y105.427
G1 F1800 X98.571 Y115.259 E36.56716
G0 F9000 X99.137 Y115.259
G1 F1800 X88.739 Y104.861 E37.30080
G0 F9000 X88.739 Y104.296
G1 F1800 X99.702 Y115.259 E38.07430
G0 F9000 X100.268 Y115.259
G1 F1800 X88.739 Y103.730 E38.88773
G0 F9000 X88.739 Y103.164
G1 F1800 X100.834 Y115.259 E39.74110
G0 F9000 X101.399 Y115.259
G1 F1800 X88.739 Y102.599 E40.63433
G0 F9000 X88.739 Y102.033
G1 F1800 X101.965 Y115.259 E41.56750
G0 F9000 X102.531 Y115.259
G1 F1800 X88.739 Y101.467 E42.54060
G0 F9000 X88.739 Y100.902
G1 F1800 X103.096 Y115.259 E43.55356
G0 F9000 X103.662 Y115.259
G1 F1800 X88.739 Y100.336 E44.60646
G0 F9000 X88.739 Y99.770
G1 F1800 X97.937 Y108.967 E45.25539
G0 F9000 X97.745 Y108.210
G1 F1800 X88.739 Y99.204 E45.89081
G0 F9000 X88.739 Y98.639
G1 F1800 X97.566 Y107.466 E46.51361
G0 F9000 X97.635 Y106.969
G1 F1800 X88.739 Y98.073 E47.14127
G0 F9000 X88.739 Y97.507
G1 F1800 X97.761 Y106.529 E47.77782
G0 F9000 X97.886 Y106.089
G1 F1800 X88.739 Y96.942 E48.42319
G0 F9000 X88.739 Y96.376
G1 F1800 X98.012 Y105.648 E49.07741
G0 F9000 X98.289 Y105.361
G1 F1800 X88.739 Y95.810 E49.75125
G0 F9000 X88.739 Y95.245
G1 F1800 X98.574 Y105.080 E50.44517
G0 F9000 X98.859 Y104.798
G1 F1800 X88.799 Y94.739 E51.15492
G0 F9000 X89.365 Y94.739
G1 F1800 X99.144 Y104.518 E51.84488
G0 F9000 X99.519 Y104.327
G1 F1800 X89.931 Y94.739 E52.52136
G0 F9000 X90.496 Y94.739
G1 F1800 X99.962 Y104.205 E53.18924
G0 F9000 X98.143 Y105.726
G0 X97.688 Y107.349
G0 X98.093 Y108.985
G0 X99.370 Y110.401
G1 F1800 X104.228 Y115.259 E53.53200
G0 F9000 X104.793 Y115.259
G1 F1800 X100.179 Y110.644 E53.85758
G0 F9000 X100.959 Y110.859
G1 F1800 X105.359 Y115.259 E54.16802
G0 F9000 X105.925 Y115.259
G1 F1800 X101.411 Y110.745 E54.48651
G0 F9000 X101.864 Y110.632
G1 F1800 X106.490 Y115.259 E54.81293
G0 F9000 X107.056 Y115.259
G1 F1800 X102.316 Y110.518 E55.14740
G0 F9000 X102.739 Y110.376
G1 F1800 X107.622 Y115.259 E55.49192
G0 F9000 X108.188 Y115.259
G1 F1800 X103.026 Y110.097 E55.85613
G0 F9000 X103.311 Y109.817
G1 F1800 X108.753 Y115.259 E56.24009
G0 F9000 X109.319 Y115.259
G1 F1800 X105.800 Y111.739 E56.48841
G0 F9000 X106.365 Y111.739
G1 F1800 X109.885 Y115.259 E56.73677
G0 F9000 X110.450 Y115.259
G1 F1800 X106.931 Y111.739 E56.98509
G0 F9000 X107.497 Y111.739
G1 F1800 X111.016 Y115.259 E57.23341
G0 F9000 X111.582 Y115.259
G1 F1800 X108.062 Y111.739 E57.48176
G0 F9000 X108.628 Y111.739
G1 F1800 X112.147 Y115.259 E57.73008
G0 F9000 X112.713 Y115.259
G1 F1800 X109.194 Y111.739 E57.97840
G0 F9000 X109.759 Y111.739
G1 F1800 X113.279 Y115.259 E58.22676
G0 F9000 X113.844 Y115.259
G1 F1800 X110.325 Y111.739 E58.47508
G0 F9000 X110.891 Y111.739
G1 F1800 X114.410 Y115.259 E58.72340
G0 F9000 X114.976 Y115.259
G1 F1800 X111.456 Y111.739 E58.97175
G0 F9000 X112.022 Y111.739
G1 F1800 X115.541 Y115.259 E59.22007
G0 F9000 X116.107 Y115.259
G1 F1800 X112.588 Y111.739 E59.46839
G0 F9000 X113.154 Y111.739
G1 F1800 X116.673 Y115.259 E59.71671
G0 F9000 X117.239 Y115.259
G1 F1800 X113.719 Y111.739 E59.96506
G0 F9000 X113.738 Y111.193
G1 F1800 X117.804 Y115.259 E60.25194
G0 F9000 X118.370 Y115.259
G1 F1800 X113.738 Y110.627 E60.57876
G0 F9000 X113.738 Y110.061
G1 F1800 X118.936 Y115.259 E60.94550
G0 F9000 X119.501 Y115.259
G1 F1800 X113.738 Y109.496 E61.35211
G0 F9000 X113.738 Y108.930
G1 F1800 X120.067 Y115.259 E61.79866
G0 F9000 X120.633 Y115.259
G1 F1800 X113.738 Y108.364 E62.28514
G0 F9000 X113.738 Y107.799
G1 F1800 X121.198 Y115.259 E62.81148
G0 F9000 X121.259 Y114.754
G1 F1800 X113.738 Y107.233 E63.34213
G0 F9000 X113.738 Y106.667
G1 F1800 X121.259 Y114.188 E63.87278
G0 F9000 X121.259 Y113.622
G1 F1800 X113.738 Y106.102 E64.40339
G0 F9000 X113.738 Y105.536
G1 F1800 X121.259 Y113.057 E64.93403
G0 F9000 X121.259 Y112.491
G1 F1800 X113.738 Y104.970 E65.46468
G0 F9000 X113.738 Y104.405
G1 F1800 X121.259 Y111.925 E65.99529
G0 F9000 X121.259 Y111.360
G1 F1800 X113.738 Y103.839 E66.52594
G0 F9000 X113.738 Y103.273
G1 F1800 X121.259 Y110.794 E67.05659
G0 F9000 X121.259 Y110.228
G1 F1800 X113.738 Y102.707 E67.58723
G0 F9000 X113.738 Y102.142
G1 F1800 X121.259 Y109.663 E68.11788
G0 F9000 X121.259 Y109.097
G1 F1800 X113.738 Y101.576 E68.64853
G0 F9000 X113.422 Y101.259
G1 F1800 X106.902 Y94.740 E69.10852
G0 F9000 X106.336 Y94.740
G1 F1800 X112.856 Y101.259 E69.56850
G0 F9000 X112.290 Y101.259
G1 F1800 X105.771 Y94.740 E70.02845
G0 F9000 X105.205 Y94.740
G1 F1800 X111.724 Y101.259 E70.48840
G0 F9000 X111.159 Y101.259
G1 F1800 X104.639 Y94.739 E70.94842
G0 F9000 X104.073 Y94.739
G1 F1800 X110.593 Y101.259 E71.40844
G0 F9000 X110.027 Y101.259
G1 F1800 X103.507 Y94.739 E71.86847
G0 F9000 X102.942 Y94.739
G1 F1800 X109.462 Y101.259 E72.32849
G0 F9000 X108.896 Y101.259
G1 F1800 X102.376 Y94.739 E72.78851
G0 F9000 X101.810 Y94.739
G1 F1800 X108.330 Y101.259 E73.24853
G0 F9000 X107.765 Y101.259
G1 F1800 X101.244 Y94.739 E73.70859
G0 F9000 X100.679 Y94.739
G1 F1800 X107.199 Y101.259 E74.16861
G0 F9000 X106.633 Y101.259
G1 F1800 X100.113 Y94.739 E74.62863
G0 F9000 X107.468 Y94.740
G1 F1800 X121.259 Y108.531 E75.60166
G0 F9000 X121.259 Y107.966
G1 F1800 X108.033 Y94.740 E76.53482
G0 F9000 X108.599 Y94.740
G1 F1800 X121.259 Y107.400 E77.42806
G0 F9000 X121.259 Y106.834
G1 F1800 X109.165 Y94.740 E78.28135
G0 F9000 X109.730 Y94.740
G1 F1800 X121.259 Y106.268 E79.09475
G0 F9000 X121.259 Y105.703
G1 F1800 X110.296 Y94.740 E79.86825
G0 F9000 X110.862 Y94.740
G1 F1800 X121.259 Y105.137 E80.60181
G0 F9000 X121.259 Y104.571
G1 F1800 X111.428 Y94.740 E81.29544
G0 F9000 X111.993 Y94.740
G1 F1800 X121.259 Y104.006 E81.94921
G0 F9000 X121.259 Y103.440
G1 F1800 X112.559 Y94.740 E82.56304
G0 F9000 X113.125 Y94.740
G1 F1800 X121.259 Y102.874 E83.13694
G0 F9000 X121.259 Y102.309
G1 F1800 X113.690 Y94.740 E83.67097
G0 F9000 X114.256 Y94.740
G1 F1800 X121.259 Y101.743 E84.16507
G0 F9000 X121.259 Y101.177
G1 F1800 X114.822 Y94.740 E84.61924
G0 F9000 X115.387 Y94.740
G1 F1800 X121.259 Y100.612 E85.03354
G0 F9000 X121.259 Y100.046
G1 F1800 X115.953 Y94.740 E85.40791
G0 F9000 X116.519 Y94.740
G1 F1800 X121.259 Y99.480 E85.74234
G0 F9000 X121.259 Y98.915
G1 F1800 X117.084 Y94.740 E86.03691
G0 F9000 X117.650 Y94.740
G1 F1800 X121.259 Y98.349 E86.29154
G0 F9000 X121.259 Y97.783
G1 F1800 X118.216 Y94.740 E86.50624
G0 F9000 X118.781 Y94.740
G1 F1800 X121.259 Y97.217 E86.68104
G0 F9000 X121.259 Y96.652
G1 F1800 X119.347 Y94.740 E86.81595
G0 F9000 X119.913 Y94.740
G1 F1800 X121.259 Y96.086 E86.91091
G0 F9000 X121.259 Y95.520
G1 F1800 X120.478 Y94.740 E86.96598
G0 F9000 X121.044 Y94.740
G1 F1800 X121.259 Y94.955 E86.98115
G0 F9000 X106.068 Y101.259
G1 F1800 X99.547 Y94.739 E87.44121
G0 F9000 X98.982 Y94.739
G1 F1800 X105.502 Y101.259 E87.90123
G0 F9000 X105.259 Y101.582
G1 F1800 X98.416 Y94.739 E88.38404
G0 F9000 X97.850 Y94.739
G1 F1800 X105.259 Y102.148 E88.90678
G0 F9000 X105.259 Y102.714
G1 F1800 X97.285 Y94.739 E89.46943
G0 F9000 X96.719 Y94.739
G1 F1800 X105.259 Y103.280 E90.07201
G0 F9000 X105.259 Y103.845
G1 F1800 X96.153 Y94.739 E90.71448
G0 F9000 X95.588 Y94.739
G1 F1800 X105.259 Y104.411 E91.39686
G0 F9000 X105.259 Y104.977
G1 F1800 X95.022 Y94.739 E92.11917
G0 F9000 X94.456 Y94.739
G1 F1800 X105.259 Y105.542 E92.88138
G0 F9000 X105.259 Y106.108
G1 F1800 X93.891 Y94.739 E93.68349
G0 F9000 X93.325 Y94.739
G1 F1800 X105.259 Y106.674 E94.52553
G0 F9000 X105.259 Y107.239
G1 F1800 X104.090 Y106.070 E94.60801
G0 F9000 X104.315 Y106.860
G1 F1800 X105.259 Y107.805 E94.67465
G0 F9000 X105.259 Y108.371
G1 F1800 X104.428 Y107.539 E94.73332
G0 F9000 X104.307 Y107.984
G1 F1800 X105.259 Y108.936 E94.80049
G0 F9000 X105.259 Y109.502
G1 F1800 X104.186 Y108.429 E94.87619
G0 F9000 X104.064 Y108.873
G1 F1800 X105.259 Y110.068 E94.96051
G0 F9000 X105.259 Y110.633
G1 F1800 X103.883 Y109.257 E95.05759
G0 F9000 X103.597 Y109.537
G1 F1800 X105.259 Y111.199 E95.17486
G0 F9000 X103.823 Y105.667
G0 X102.287 Y104.267
G1 F1800 X92.759 Y94.739 E95.84711
G0 F9000 X92.193 Y94.739
G1 F1800 X101.531 Y104.076 E96.50592
G0 F9000 X100.853 Y103.964
G1 F1800 X91.628 Y94.739 E97.15679
G0 F9000 X91.062 Y94.739
G1 F1800 X100.408 Y104.085 E97.81620
;LAYER:1
M106 S63
G0 F9000 X99.834 Y104.385 Z0.500
;TYPE:WALL-INNER
G1 F2220 X99.328 Y104.532 E97.83373
G1 X98.498 Y105.351 E97.87251
G1 X98.132 Y105.730 E97.89003
G1 X97.812 Y106.849 E97.92874
G1 X97.682 Y107.360 E97.94628
G1 X97.954 Y108.492 E97.98500
G1 X98.093 Y109.000 E98.00252
G1 X98.888 Y109.854 E98.04133
G1 X99.265 Y110.227 E98.05897
G1 X100.437 Y110.580 E98.09968
G1 X100.952 Y110.719 E98.11742
G1 X102.107 Y110.432 E98.15700
G1 X102.622 Y110.298 E98.17470
G1 X103.481 Y109.457 E98.21469
G1 X103.863 Y109.081 E98.23251
G1 X104.322 Y107.397 E98.29057
G1 X103.984 Y106.200 E98.33194
G1 X103.830 Y105.662 E98.35055
G1 X102.984 Y104.853 E98.38948
G1 X102.600 Y104.492 E98.40701
G1 X101.471 Y104.205 E98.44576
G1 X100.959 Y104.081 E98.46328
G1 X99.834 Y104.385 E98.50204
G0 F9000 X105.400 Y101.400
G1 F2220 X105.400 Y111.600 E98.84129
G1 X113.600 Y111.600 E99.11402
G1 X113.600 Y101.400 E99.45328
G1 X105.400 Y101.400 E99.72601
G0 F9000 X121.400 Y94.600
G1 F2220 X121.400 Y115.400 E100.41782
G1 X88.600 Y115.400 E101.50875
G1 X88.600 Y94.600 E102.20056
G1 X121.400 Y94.600 E103.29150
G0 F9000 X121.800 Y94.200
;TYPE:WALL-OUTER
G1 F1980 X121.800 Y115.800 E104.00992
G1 X88.200 Y115.800 E105.12746
G1 X88.200 Y94.200 E105.84588
G1 X121.800 Y94.200 E106.96342
G0 F9000 X121.500 Y94.410
G0 X113.200 Y101.500
G0 X113.200 Y101.800
G1 F1980 X105.800 Y101.800 E107.20954
G1 X105.800 Y111.200 E107.52219
G1 X113.200 Y111.200 E107.76831
G1 X113.200 Y101.800 E108.08096
G0 F9000 X113.200 Y101.500
G0 X105.459 Y101.459
G0 X103.683 Y105.660
G0 X103.476 Y105.876
G1 F1980 X102.709 Y105.143 E108.11624
G1 X102.401 Y104.854 E108.13029
G1 X101.374 Y104.593 E108.16553
G1 X100.964 Y104.494 E108.17956
G1 X99.942 Y104.770 E108.21477
G1 X99.537 Y104.888 E108.22880
G1 X98.783 Y105.632 E108.26403
G1 X98.489 Y105.936 E108.27810
G1 X98.198 Y106.954 E108.31332
G1 X98.094 Y107.363 E108.32735
G1 X98.341 Y108.392 E108.36255
G1 X98.453 Y108.799 E108.37659
G1 X99.175 Y109.575 E108.41184
G1 X99.476 Y109.873 E108.42593
G1 X100.546 Y110.195 E108.46310
G1 X100.956 Y110.306 E108.47722
G1 X102.008 Y110.044 E108.51328
G1 X102.419 Y109.937 E108.52741
G1 X103.506 Y108.872 E108.57802
G1 X103.907 Y107.399 E108.62880
G1 X103.476 Y105.876 E108.68144
G0 F9000 X103.965 Y105.621
;TYPE:SKIN
G1 F1980 X105.259 Y104.327 E108.74231
G0 F9000 X105.259 Y104.892
G1 F1980 X104.090 Y106.061 E108.79729
G0 F9000 X104.215 Y106.502
G1 F1980 X105.259 Y105.458 E108.84640
G0 F9000 X105.259 Y106.024
G1 F1980 X104.339 Y106.943 E108.88965
G0 F9000 X104.465 Y107.384
G1 F1980 X105.259 Y106.589 E108.92702
G0 F9000 X105.259 Y107.155
G1 F1980 X104.261 Y108.153 E108.97396
G0 F9000 X104.048 Y108.931
G1 F1980 X105.259 Y107.721 E109.03090
G0 F9000 X105.259 Y108.287
G1 F1980 X98.286 Y115.259 E109.35887
G0 F9000 X98.852 Y115.259
G1 F1980 X105.259 Y108.852 E109.66023
G0 F9000 X105.259 Y109.418
G1 F1980 X99.417 Y115.259 E109.93500
G0 F9000 X99.983 Y115.259
G1 F1980 X105.259 Y109.984 E110.18314
G0 F9000 X105.259 Y110.549
G1 F1980 X100.549 Y115.259 E110.40469
G0 F9000 X101.114 Y115.259
G1 F1980 X105.259 Y111.115 E110.59963
G0 F9000 X105.259 Y111.681
G1 F1980 X101.680 Y115.259 E110.76795
G0 F9000 X102.246 Y115.259
G1 F1980 X105.766 Y111.739 E110.93352
G0 F9000 X106.331 Y111.739
G1 F1980 X102.811 Y115.259 E111.09909
G0 F9000 X103.377 Y115.259
G1 F1980 X106.897 Y111.739 E111.26466
G0 F9000 X107.463 Y111.739
G1 F1980 X103.943 Y115.259 E111.43023
G0 F9000 X104.508 Y115.259
G1 F1980 X108.028 Y111.739 E111.59580
G0 F9000 X108.594 Y111.739
G1 F1980 X105.074 Y115.259 E111.76137
G0 F9000 X105.640 Y115.259
G1 F1980 X109.160 Y111.739 E111.92694
G0 F9000 X109.726 Y111.739
G1 F1980 X106.206 Y115.259 E112.09251
G0 F9000 X106.771 Y115.259
G1 F1980 X110.291 Y111.739 E112.25808
G0 F9000 X110.857 Y111.739
G1 F1980 X107.337 Y115.259 E112.42365
